flags/om.svg

<svg width="512" height="512" viewBox="0 0 512 512" fill="none" xmlns="http://www.w3.org/2000/svg">
<rect y="136" width="512" height="240" fill="var(--flag-palette-bright-red, #d80027)"/>
<rect y="344" width="512" height="168" fill="var(--flag-palette-green, #6da544)"/>
<rect width="512" height="168" fill="var(--flag-palette-white, #eeeeee)"/>
<rect y="512" width="512" height="168" transform="rotate(-90 0 512)" fill="var(--flag-palette-bright-red, #d80027)"/>
<path d="M101.072 130.903L84 101.334L66.9282 130.903L53.0718 122.903L70.1435 93.334H36V77.334H70.1436L53.0718 47.7646L66.9282 39.7646L84 69.3339L101.072 39.7646L114.928 47.7646L97.8563 77.334H132V93.334H97.8565L114.928 122.903L101.072 130.903Z" fill="var(--flag-palette-white, #eeeeee)"/>
</svg>

<svg xmlns="http://www.w3.org/2000/svg" width="512" height="512" fill="none"><path fill="var(--flag-palette-bright-red, #d80027)" d="M0 136h512v240H0z"/><path fill="var(--flag-palette-green, #6da544)" d="M0 344h512v168H0z"/><path fill="#EEE" d="M0 0h512v168H0z"/><path fill="var(--flag-palette-bright-red, #d80027)" d="M0 512V0h168v512z"/><path fill="#EEE" d="m101 130.9-17-29.6L67 131l-14-8 17.1-29.6H36v-16h34.1l-17-29.5 13.8-8L84 69.3l17-29.5 14 8-17.1 29.5H132v16H97.9l17 29.6z"/></svg>
